X:333
T: "Der verrathene Ritter "
N: Z1013
O: Europa, Mitteleuropa, Deutschland
R: Romanze, Ballade
M: 2/4
L: 1/16
K: C
G,2 | C2D2_E2C2 | B,2C2D2z2 |
C4G4 | F2G2C2
C2 | D2D2G2G2 | _E2DEC4 |
C2B,CD4 | C2B,CD4 |
C4G2G2 | _E2DEC2

@@@ Tune index: 10091
